X: 21322
M: 2/4
L: 1/16
K: D
V: 1 name="2"
f4 f4 | f4 gfed | A2e2 A2e2 | c2e2 A2ag |\
f4 f4 | f4 gfed | c2e2 A2ag | d4 d2 H|]
(3(BAG) |\
!f!F2A2 F2Ac | dcde d2AF | F2A2 d2f2 | edcB ABAG |\


